static/assets/template/assets/img/icons/essential/detailed/Map_2.svg

<svg height="148" viewBox="0 0 151 148" width="151" xmlns="http://www.w3.org/2000/svg"><g fill="none" fill-rule="evenodd" transform="translate(1 1)"><path d="m143.6 142.7-32.9-12.6-36.2 14.6-39.2-14.6-30 11.5c-2.7 1-5.5-1.5-4.7-4.3l18.7-64.7c.6-2.1 2.1-3.9 4.1-4.8l30-14.1 21.1 15.1 20.6-13.1 33.2 14.6c2.2 1 3.8 2.9 4.3 5.2l15.6 63.1c.8 2.8-1.9 5.2-4.6 4.1z" fill-rule="nonzero"/><path d="m143.4 143.2-32.9-12.6-15.6-74.3 33.2 14.6c2.2 1 3.8 2.9 4.3 5.2l15.6 63.1c.8 2.6-2 5-4.6 4z" fill-rule="nonzero"/><path d="m35.4 130.1-30 11.5c-2.7 1-5.5-1.5-4.7-4.3l18.7-64.7c.6-2.1 2.1-3.9 4.1-4.8l30-14.1 21.1 15.1 20.6-13.1 3 1.3" stroke-linecap="round" stroke-linejoin="round" stroke-width="3"/><path d="m110.1 62.3 18.3 8c2.2 1 3.8 2.9 4.3 5.2l15.6 63.1c.7 2.8-2 5.2-4.7 4.1l-32.9-12.6-36.2 14.6-32.3-12" stroke-linecap="round" stroke-linejoin="round" stroke-width="3"/><path d="m53.5 53.8-18.1 76.3-30 11.5c-2.7 1-5.5-1.5-4.7-4.3l18.7-64.7c.6-2.1 2.1-3.9 4.1-4.8z" fill-rule="nonzero"/><path d="m53.5 53.8-18.1 76.3-30 11.5c-2.7 1-5.5-1.5-4.7-4.3l18.7-64.7c.6-2.1 2.1-3.9 4.1-4.8z" stroke-linecap="round" stroke-linejoin="round" stroke-width="3"/><path d="m110.8 130.1-36.2 14.6v-75.9l20.6-13z" fill-rule="nonzero"/><path d="m18.6 89c10 15.3 22.3 30.2 39.7 16.8 20.9-16 16-24.6 30.7-13.5 15.6 11.7 13.3 23.3 42.4-5.4" stroke-dasharray="1 7" stroke-linecap="round" stroke-linejoin="round" stroke-width="3"/><path d="m74.6 89.8v-21l20.6-13 15.6 74.3-36.2 14.6v-36.8" stroke-linecap="round" stroke-linejoin="round" stroke-width="3"/><path d="m74.6.5c18.3 0 33.1 14.8 33.1 33.1 0 14.6-21 43.5-29.6 54.7-1.8 2.4-5.4 2.4-7.2 0-8.6-11.2-29.6-40.1-29.6-54.7.2-18.2 15-33.1 33.3-33.1z" fill-rule="nonzero"/><path d="m76.1 6.6c16.6 0 30.1 13.8 30.1 30.9 0 13.6-19.1 40.5-26.9 51-1.6 2.2-4.9 2.2-6.5 0-7.8-10.5-26.9-37.4-26.9-51 .1-17.1 13.6-30.9 30.2-30.9z" fill-rule="nonzero"/><circle cx="75.1" cy="33.4" fill-rule="nonzero" r="12.9"/><g stroke-linecap="round" stroke-linejoin="round" stroke-width="3"><path d="m64.9 2c3.1-.9 6.3-1.4 9.7-1.4 18.3 0 33.1 14.8 33.1 33.1 0 14.6-21 43.5-29.6 54.7-1.8 2.4-5.4 2.4-7.2 0-8.6-11.2-29.6-40.1-29.6-54.7 0-4.5.9-8.7 2.5-12.6"/><path d="m48.4 13.4c1.1-1.4 2.3-2.8 3.6-4"/><path d="m74.6 46.7c-7.2 0-13.1-5.8-13.1-13.1 0-3 1-5.7 2.6-7.9"/><path d="m72.7 20.8c.6-.1 1.3-.1 1.9-.1 7.2 0 13.1 5.8 13.1 13.1 0 3.6-1.5 6.9-3.8 9.2"/></g></g></svg>

<?xml version="1.0" encoding="UTF-8"?>
<svg width="151px" height="148px" viewBox="0 0 151 148" version="1.1" xmlns="http://www.w3.org/2000/svg" xmlns:xlink="http://www.w3.org/1999/xlink">
    <!-- Generator: Sketch 51.2 (57519) - http://www.bohemiancoding.com/sketch -->
    <title>Map_2</title>
    <desc>Created with Sketch.</desc>
    <defs></defs>
    <g id="Page-1" stroke="none" stroke-width="1" fill="none" fill-rule="evenodd">
        <g id="Map_2" transform="translate(1.000000, 1.000000)">
            <path d="M143.6,142.7 L110.7,130.1 L74.5,144.7 L35.3,130.1 L5.3,141.6 C2.6,142.6 -0.2,140.1 0.6,137.3 L19.3,72.6 C19.9,70.5 21.4,68.7 23.4,67.8 L53.4,53.7 L74.5,68.8 L95.1,55.7 L128.3,70.3 C130.5,71.3 132.1,73.2 132.6,75.5 L148.2,138.6 C149,141.4 146.3,143.8 143.6,142.7 Z" id="Shape" class="fill-neutral" fill-rule="nonzero"></path>
            <path d="M143.4,143.2 L110.5,130.6 L94.9,56.3 L128.1,70.9 C130.3,71.9 131.9,73.8 132.4,76.1 L148,139.2 C148.8,141.8 146,144.2 143.4,143.2 Z" id="Shape" class="fill-neutral" fill-rule="nonzero"></path>
            <path d="M35.4,130.1 L5.4,141.6 C2.7,142.6 -0.1,140.1 0.7,137.3 L19.4,72.6 C20,70.5 21.5,68.7 23.5,67.8 L53.5,53.7 L74.6,68.8 L95.2,55.7 L98.2,57" id="Shape" class="stroke-primary" stroke-width="3" stroke-linecap="round" stroke-linejoin="round"></path>
            <path d="M110.1,62.3 L128.4,70.3 C130.6,71.3 132.2,73.2 132.7,75.5 L148.3,138.6 C149,141.4 146.3,143.8 143.6,142.7 L110.7,130.1 L74.5,144.7 L42.2,132.7" id="Shape" class="stroke-primary" stroke-width="3" stroke-linecap="round" stroke-linejoin="round"></path>
            <path d="M53.5,53.8 L35.4,130.1 L5.4,141.6 C2.7,142.6 -0.1,140.1 0.7,137.3 L19.4,72.6 C20,70.5 21.5,68.7 23.5,67.8 L53.5,53.8 Z" id="Shape" class="fill-primary-100" fill-rule="nonzero"></path>
            <path d="M53.5,53.8 L35.4,130.1 L5.4,141.6 C2.7,142.6 -0.1,140.1 0.7,137.3 L19.4,72.6 C20,70.5 21.5,68.7 23.5,67.8 L53.5,53.8 Z" id="Shape" class="stroke-primary" stroke-width="3" stroke-linecap="round" stroke-linejoin="round"></path>
            <polygon id="Shape" class="fill-primary-100" fill-rule="nonzero" points="110.8 130.1 74.6 144.7 74.6 68.8 95.2 55.8"></polygon>
            <path d="M18.6,89 C28.6,104.3 40.9,119.2 58.3,105.8 C79.2,89.8 74.3,81.2 89,92.3 C104.6,104 102.3,115.6 131.4,86.9" id="Shape" class="stroke-primary-300" stroke-width="3" stroke-linecap="round" stroke-linejoin="round" stroke-dasharray="1,7"></path>
            <polyline id="Shape" class="stroke-primary" stroke-width="3" stroke-linecap="round" stroke-linejoin="round" points="74.6 89.8 74.6 68.8 95.2 55.8 110.8 130.1 74.6 144.7 74.6 107.9"></polyline>
            <path d="M74.6,0.5 C92.9,0.5 107.7,15.3 107.7,33.6 C107.7,48.2 86.7,77.1 78.1,88.3 C76.3,90.7 72.7,90.7 70.9,88.3 C62.3,77.1 41.3,48.2 41.3,33.6 C41.5,15.4 56.3,0.5 74.6,0.5 Z" id="Shape" class="fill-neutral" fill-rule="nonzero"></path>
            <path d="M76.1,6.6 C92.7,6.6 106.2,20.4 106.2,37.5 C106.2,51.1 87.1,78 79.3,88.5 C77.7,90.7 74.4,90.7 72.8,88.5 C65,78 45.9,51.1 45.9,37.5 C46,20.4 59.5,6.6 76.1,6.6 Z" id="Shape" class="fill-primary-100" fill-rule="nonzero"></path>
            <circle id="Oval" class="fill-neutral" fill-rule="nonzero" cx="75.1" cy="33.4" r="12.9"></circle>
            <path d="M64.9,2 C68,1.1 71.2,0.6 74.6,0.6 C92.9,0.6 107.7,15.4 107.7,33.7 C107.7,48.3 86.7,77.2 78.1,88.4 C76.3,90.8 72.7,90.8 70.9,88.4 C62.3,77.2 41.3,48.3 41.3,33.7 C41.3,29.2 42.2,25 43.8,21.1" id="Shape" class="stroke-primary" stroke-width="3" stroke-linecap="round" stroke-linejoin="round"></path>
            <path d="M48.4,13.4 C49.5,12 50.7,10.6 52,9.4" id="Shape" class="stroke-primary" stroke-width="3" stroke-linecap="round" stroke-linejoin="round"></path>
            <path d="M74.6,46.7 C67.4,46.7 61.5,40.9 61.5,33.6 C61.5,30.6 62.5,27.9 64.1,25.7" id="Shape" class="stroke-primary" stroke-width="3" stroke-linecap="round" stroke-linejoin="round"></path>
            <path d="M72.7,20.8 C73.3,20.7 74,20.7 74.6,20.7 C81.8,20.7 87.7,26.5 87.7,33.8 C87.7,37.4 86.2,40.7 83.9,43" id="Shape" class="stroke-primary" stroke-width="3" stroke-linecap="round" stroke-linejoin="round"></path>
        </g>
    </g>
</svg>
